' Shostakovich Symphony 4 mov 3 
MML
 o4 b>d<ba+b>c c+dc+ec+c c+dd+ed+f+ d+dd+eff+ eg+gf+fe fg+gf+fe ff+gg+ag+ ag+af+af ag+af+af ag+af+af ag+af+af
 o6 cc+cd+c<a+ >cc+dd+df dc+dd+ef eged+ef f+gf+ag+g f+ff+gg+g f+ff+gg+a a+aa+aa+a a+f+a+aa+a a+f+a+aa+a a+f+a+aa+a
 o5 aa+b>c<b>d <ba+b>cc+d c+ec+cc+d c+ec+cc+d d+eff+f+g+ gf+gf+fe gg+gf+fe ff+gg+ag+ af+afag+ af+afag+ af+afag+
 o4 cc+cd+c+<b >cc+cd+c<b >cr1 r4..  g+gf+ff+a g+gf+ff+g g+aa+aa+a a+f+r8.c <bagfd+c+
 o4 r4.r4. cc+dd+df dc+dd+ef egefef f+gg+ag+g a+r1..
 
