' Teen Town
'   Intro again
MML
 @8 o4l8 agag3r24ag f+ef+e4.r4 >dcdc3r24dc <baba4.r4 agag3r24ag f+ef+e4..r. >dcdc3r24dc <babag+f+g+f+
 o3 x=s1$; x=s1$; x=s1$; x=s1$; x=s1$; x=s1$; x=s1$; x=s1$; x=s1$; x=s1$; x=s1$; x=s1$; x=s1$; x=s1$; x=s1$; @58c8@0c8@58c8c24c24c24
 l1 rrrr rrrr
 v13 o6l8 <c<a+>c<a+3r24>c<a+ agag4..r. >fd+fd+3r24fd+ dcdc4..r. c<a+>c<a+3r24>c<a+ agag4..r. >fd+fd+3r24fd+ dcdc<baba
 v13 o5l8 eded4red c+<b>c+<b4.r4 >agag3r24ag f+ef+e4..r. eded4red c+<b>c+<b4.r4 >agag3r24ag f+ef+ed+c+d+c+
 l1 rrrr rrrr
