' FIRECRACKER
'   Coda 2
MML
 l16 x=s1$; x=s1$; x=s1$; x=s1$; x=s1$; x=s1$; x=s1$; x=s1$; x=s1$; x=s1$; x=s1$; x=s1$; x=s1$; x=s1$; x=s1$; x=s1$;
 r1 r1 r1 r1 r1 r1 r1 r1
 @2 v15 o5q5l16 gagegagegagegage ded<b>ded<b>ded<bab>de gagegagegagegage ded<b>ded<b>ded<bab>de gagegagegagegage ded<b>ded<b>ded<bab>de gagegagegagegage ded<b>ded<b>ded<bab>de
 v14 o3 l16 grarb.r.drderdrer grarb.r.drderdrer grarb.r.drderdrer grarb.r.drderdrer grarb.r.drderdrer grarb.r.drderdrer grarb.r.drderdrer grarb.r.drderdrer
 v14 r1r1r1r1 q6o5l16 b>d<bab>d<bab>d<bab>d<ba gagegagegagedega b>d<bab>d<bab>d<bab>d<ba gagegagegagedega
 r1r1r1r1 r1r1r1r1
