' FIRECRACKER
'   Intro
MML
 mb t120 @74v15l16q4 o5 r8f8r8dd r8f8r8dd r8f8r8dd r8f8r8dd r8f8r8dd r8f8r8dd r8f8r8dd r8f8r8dd
 mb r1 r1 r1 r1
 mb r1 r1 r1 r1
 mb v15 r1 r1 r1 r2 o3 l16 rderdrer
 mb v15 r1 r1 r1 r2 o6 l16 rderdrer
 mb r1 r1 r1 r1
