' FIRECRACKER
'   Coda 1
MML
 l16 x=s1$; x=s1$; x=s1$; x=s1$; x=s1$; x=s1$; x=s1$; @1<c>@58v15ccrcrcr
 l16 o5_c x=s2$; x=s2$; x=s2$; x=s2$;
 @78 v15 o5q7 d8l16ed<b.r32a.r32r2 q7@7o6d8l16ed<b.r32a.r32r2 @9v14o5>d8l16ed<b8a8r2 @8v15o5>d8l16ed<b8a8r2
 v15 o5 r1 r1 a8l16bag.r32e.r32r2 <a8l16bag.r32e8r2
 v14 o5 q8l16 r2g.r32e.r32d.r32e.r32 <r2g.r32e.r32d.r32e.r32 <r2g.r32e.r32d.r32e.r32 r2 o3rderdrer
 v15 o5 q8l16 r2d.r32<b.r32a.r32b.r32 r2d.r32<b.r32a.r32b.r32 r2d.r32<b.r32a.r32b.r32 r2 o6rderdrer
