' FIRECRACKER
'   Coda 3
MML
 l16 x=s1$; x=s1$; x=s1$; x=s1$; x=s1$; x=s1$; x=s1$; x=s1$; x=s1$; x=s1$; x=s1$; x=s1$; x=s1$; x=s1$; x=s1$; x=s1$; x=s1$; x=s1$; x=s1$; x=s1$; x=s1$; @1<c>@58v15ccccccc
 r1 r1 r1 r1 r1 r1 r1 r1
 @2 v15 o5q5l16 gagegageded<b>ded<b >gagegageded<b>ded<b >gagegageded<b>ded<b >gagegageded<b>ded<b >gagegageded<b>ded<b >gagegageded<b>ded<b >gagegageded<b>ded<b >gagegageded<b>ded<b >gagegagegagegage gagegagegagegage gagegagegagegage
 v14 o3 l16 grarb.r.drderdrer grarb.r.drderdrer grarb.r.drderdrer grarb.r.drderdrer grarb.r.drderdrer grarb.r.drderdrer grarb.r.drderdrer grarb.r.drderdrer grarb.r.drderdrer grarb.r.drderdrer grarb.r.drderdre8
 v13 q7o6 l16 ded<bgedegagedega> ded<bgedegagedega> ded<bgedegagedega> ded<bgedegagedega> ded<bgedegagedega> ded<bgedegagedega> ded<bgedegagedega> ded<bgedegagedega> ded<b>ded<b>ded<b>ded<b> ded<b>ded<b>ded<b>ded<b> ded<b>ded<b>ded<b>ded<b>
 v14 r1r1r1r1 q7o5l16 b>d<bagageb>d<bagage b>d<bagageb>d<bagage b>d<bagageb>d<bagage b>d<bagageb>d<bagage v15 b>d<bab>d<bab>d<bab>d<ba b>d<bab>d<bab>d<bab>d<ba b>d<bab>d<bab>d<bab>d<ba
