' FIRECRACKER
'   Coda 1
MML
 @74v14 o5 l16 r8f8r8cc r8f8r8cc r8f8r8cc r8f8r8cc r8f8r8cc r8f8r8cc r8f8r8cc r8f8r8cc
 @58 l4 rcrc rcrc rcrc rc l16rccrcrcr
 @78 v15 o5q7 d8l16ed<b.r32a.r32r2 q8@7o6d8l16ed<b.r32a.r32r2 @9o5>d8l16ed<b.r32a.r32r2 @8o5>d8l16ed<b.r32a.r32r2
 v15 o5 r1 r1 a8l16bag.r32e.r32r2 <a8l16bag.r32e.r32r2
 v14 o4 q8l16 r2g.r32e.r32d.r32e.r32 r2g.r32e.r32d.r32e.r32 r2g.r32e.r32d.r32e.r32 r2 o3rderdrer
 v15 o4 q8l16 r2d.r32<b.r32a.r32b.r32 >r2d.r32<b.r32a.r32b.r32 >r2d.r32<b.r32a.r32b.r32 r2 o6rderdrer
