' FIRECRACKER
'   Coda 3
MML
 @74v14 o5 l16 r8f8r8cc r8f8r8cc r8f8r8cc r8f8r8cc r8f8r8cc r8f8r8cc r8f8r8cc r8f8r8cc r8f8r8cc r8f8r8cc r8f8r8cc r8f8r8cc r8f8r8cc r8f8r8cc r8f8r8cc r8f8r8cc r8f8r8cc r8f8r8cc r8f8r8cc r8f8r8cc r8f8r8cc r8f8r8cc
 @58 l4 rcrc rcrc rcrc rcrc rcrc rcrc rcrc rcrc rcrc rcrc rc l16 cccccccc
 @2 v15 o5q5l16 gagegageded<b>ded<b >gagegageded<b>ded<b >gagegageded<b>ded<b >gagegageded<b>ded<b >gagegageded<b>ded<b >gagegageded<b>ded<b >gagegageded<b>ded<b >gagegageded<b>ded<b >gagegagegagegage gagegagegagegage gagegagegagegage
 v14 o3 l16 grarbrrdrderdrer grarbrrdrderdrer grarbrrdrderdrer grarbrrdrderdrer grarbrrdrderdrer grarbrrdrderdrer grarbrrdrderdrer grarbrrdrderdrer grarbrrdrderdrer grarbrrdrderdrer grarbrrdrderdrer
 v13 q7o6 l16 ded<bgedegagedega> ded<bgedegagedega> ded<bgedegagedega> ded<bgedegagedega> ded<bgedegagedega> ded<bgedegagedega> ded<bgedegagedega> ded<bgedegagedega> ded<b>ded<b>ded<b>ded<b> ded<b>ded<b>ded<b>ded<b> ded<b>ded<b>ded<b>ded<b>
 v14 r1r1r1r1 q7o5l16 b>d<bagageb>d<bagage b>d<bagageb>d<bagage b>d<bagageb>d<bagage b>d<bagageb>d<bagage v15 b>d<bab>d<bab>d<bab>d<ba b>d<bab>d<bab>d<bab>d<ba b>d<bab>d<bab>d<bab>d<ba
