' FIRECRACKER
'   A melody
MML
 @74v14 o5 l16 r8f8r8cc r8f8r8cc r8f8r8cc r8f8r8cc r8f8r8cc r8f8r8cc r8f8r8cc r8f8r8cc r8f8r8cc r8f8r8cc
 @58 l4 rcrc rcrc rcrc rcrc rcrc rcrc
 @71 v15 o6q8 d8l16ed<b.r32a.r32g.r32e.r32d.r32e.r32gaged.r32<b.r32a.r32b.r32>d.r32e.r32 ded<ba.r32>ded<ba.r32>ded<ba.r32a.r32b.r32b.r32>d.r32d.r32e.r32e.r32 g4.g4.r8a8 b4.b2r8
 v14 o3 l16 grarbrrdrderdrer grarbrrdrderdrer grarbrrdrderdrer grarbrrdrderdrer grarbrrdrderdrer grarbrrdrderdrer
 v13 o5 a8l16bag.r32e.r32d.r32<b.r32a.r32b.r32>ded<ba.r32g.r32e.r32g.r32a.r32b.r32 abage.r32abage.r32abag e.r32e.r32g.r32g.r32a.r32a.r32b.r32b.r32 >d4.d4.r8e8 f#4.f#2r8
 v15 l16 o6 grarbrrdrderdrer grarbrrdrderdrer grarbrrdrderdrer grarbrrdrderdrer grarbrrdrderdrer grarbrrdrderdrer
