' FIRECRACKER
'   C melody
MML
 @74v13 o5 l16 r8f8r8cc r8f8r8cc r8f8r8cc r8f8r8cc r8f8r8cc r8f8r8cc r8f8r8cc r8f8r8cc r8f8r8cc r8f8r8cc r8f8r8cc r8f8r8cc r8f8r8cc r8f8r8cc r8f8r8cc r8f8r8cc
 @58 l4 rcrc rcrc rcrc rcrc rcrc rcrc rcrc rcrc
 @25 v15 o4 l16q4 b>c<b>c<b>c<b>c<b>c<b>c<b>c<b>c <b>c<b>c<b>c<b>c<b>c<b>c<b>c#dd# efefefefefefefef efefefefefefc#def r1r1r1r1
 v15 o2 l16 br>crd#rr<f#rf#grf#rgr br>crd#rr<brb>cr<br>d#r erfrg#rr<brb>cr<br>dr erfrg#rr<brb>cr<br>dr f# r8.r2. r1r1r1
 v15q8 r1r1r1r1 o1l24q8 a+>ec+f+eg a+>ec+f+ega+>ec+f+ega+>ec+f+ega+g>c+<a+>ecf+ga+> l32ce<a+f+> l24c+ec<a+>c+ec+<a+ga+>c+egf+ec+c<a+>ec+c<a+gf+ec+c<a+>cc+ l32 ec<a+g>c+<a+gf+>gf+ec+<gf+ec+gf+ec+c<a+gf+ l24 gf+ec+c<a+gf+ec+c<a+
 r1r1r1r1r1r1r1r1
