' FIRECRACKER
'   Coda 2
MML
 @74v14 o5 l16 r8f8r8cc r8f8r8cc r8f8r8cc r8f8r8cc r8f8r8cc r8f8r8cc r8f8r8cc r8f8r8cc r8f8r8cc r8f8r8cc r8f8r8cc r8f8r8cc r8f8r8cc r8f8r8cc r8f8r8cc r8f8r8cc
 @58 l4 rcrc rcrc rcrc rcrc rcrc rcrc rcrc rcrc
 @2 v15 o5q5l16 gagegagegagegage ded<b>ded<b>ded<bab>de gagegagegagegage ded<b>ded<b>ded<bab>de gagegagegagegage ded<b>ded<b>ded<bab>de gagegagegagegage ded<b>ded<b>ded<bab>de
 v14 o3 l16 grarbrrdrderdrer grarbrrdrderdrer grarbrrdrderdrer grarbrrdrderdrer grarbrrdrderdrer grarbrrdrderdrer grarbrrdrderdrer grarbrrdrderdrer
 v14 r1r1r1r1 q6o5l16 b>d<bab>d<bab>d<bab>d<ba gagegagegagedega b>d<bab>d<bab>d<bab>d<ba gagegagegagedega
 r1r1r1r1 r1r1r1r1
