' FIRECRACKER
'   B melody
MML
 @74v13 o4 r8f8r8c16c16 r8f8r8c16c16 r8f8r8c16c16 r8f8r8c16c16 r8f8r8c16c16 r8f8r8c16c16 r8f8r8c16c16 r8f8r8c16c16 r8f8r8c16c16 r8f8r8c16c16 r8f8r8c16c16 r8f8r8c16c16 r8f8r8c16c16 r8f8r8c16c16
 @58 l4 rcrc rcrc rcrc rcrc rcrc rcrc rcrc rcrc
 @78 v15 o5 l8 b4.ab4.af#4.ef#4.e b4.ab4.af#4.ef#4.e <b4.ab4.ab>d<b24>d24<b24af#ef#a b4.ab4.ab>d<b24>d24<b24af#ef#a
 o2 l16 br>c#rdrr<f#rf#grf#rar br>c#rdrr<f#rf#grf#rar br>c#rdrr<f#rf#grf#rar br>c#rdrr<f#rf#grf#rar br>c#rdrr<f#rf#grf#rar >drerf#rrerf#grf#rar <br>c#rdrr<f#rf#grf#rar >drerf#rrerf#grf#rar
 o4 d1
 o3 b1
