' FIRECRACKER
'   C melody
MML
 @74v13 o4 r8f8r8c16c16 r8f8r8c16c16 r8f8r8c16c16 r8f8r8c16c16 r8f8r8c16c16 r8f8r8c16c16 r8f8r8c16c16 r8f8r8c16c16 r8f8r8c16c16 r8f8r8c16c16 r8f8r8c16c16 r8f8r8c16c16 r8f8r8c16c16 r8f8r8c16c16 r8f8r8c16c16 r8f8r8c16c16
 @58 l4 rcrc rcrc rcrc rcrc rcrc rcrc rcrc rcrc
 @25 v15 o4 l16q4 b>c<b>c<b>c<b>c<b>c<b>c<b>c<b>c <b>c<b>c<b>c<b>c<b>c<b>c<b>c#dd# efefefefefefefef efefefefefefc#def f#
 v15 o2 l16 br>crd#rr<f#rf#grf#rgr br>crd#rr<brb>cr<br>d#r erfrg#rr<brb>cr<br>dr erfrg#rr<brb>cr<br>dr f#
 
 
