' FIRECRACKER
'   A melody
MML
 t120 @74v14 o5 l16 r8f8r8cc r8f8r8cc r8f8r8cc r8f8r8cc r8f8r8cc r8f8r8cc r8f8r8cc r8f8r8cc r8f8r8cc r8f8r8cc
 @58 l4 rcrc rcrc rcrc rcrc rcrc rcrc
 @71 v15 o6q8 d8l16ed<brargrerdrergagedr<brarbr>drer ded<bar>ded<bar>ded<bararbrbr>drdrerer g4.g4.r8a8 b4.b2r8
 v14 o3 l16 grarbrrdrderdrer grarbrrdrderdrer grarbrrdrderdrer grarbrrdrderdrer grarbrrdrderdrer grarbrrdrderdrer
 v13 o5 a8l16bagrerdr<brarbr>ded<bargrergrarbr abagerabagerabag erergrgrararbrbr >d4.d4.r8e8 f#4.f#2r8
 v15 l16 o6 grarbrrdrderdrer grarbrrdrderdrer grarbrrdrderdrer grarbrrdrderdrer grarbrrdrderdrer grarbrrdrderdrer
