' FIRECRACKER
'     Martin Denny / Yellow Magic Orchestra
MML
 @74v13 o4 r8f8r8c16c16 r8f8r8c16c16 r8f8r8c16c16 r8f8r8c16c16 r8f8r8c16c16 r8f8r8c16c16 r8f8r8c16c16 r8f8r8c16c16 r8f8r8c16c16 r8f8r8c16c16 r8f8r8c16c16 r8f8r8c16c16 r8f8r8c16c16 r8f8r8c16c16 r8f8r8c16c16 r8f8r8c16c16
 @58 l4 rcrc rcrc rcrc rcrc rcrc rcrc rcrc rcrc
 @78 o6q7 l8 !c4.<b>c4.<ba4.ga4.g f#4.ef#4.ed4.cd4.c o5b4.ab4.ab>d<b24>d24<b24a b>d<b24>d24<b24a b2 l16rb>c#def#gab2a2
 o3 l16 crdrerr<grgargrar >crdrerr<grgargrar >crdrerr<grgargrar >crdrerr<grgargrar br>c#rdrr<f#rf#grf#rar grarbrr>drderdrer crdrerrc#rc#erc#r er drerf#rrdrderdrer
 v14 o5 e4.d8e4.d8c4.<b8>c4.<b8 a4.g8a4.g8f#4.e8f#4.e8
 
